icons/tape-measure-two-color.svg

<?xml version="1.0" encoding="UTF-8"?><svg xmlns="http://www.w3.org/2000/svg" viewBox="0 0 50 50"><g id="uuid-3dbc1408-1eca-401a-970c-23c7926efa01"><g><path d="M34.28,25.89c-.28,0-.53-.22-.53-.5v-5.99c0-3.34-6.55-6.17-14.3-6.17s-14.21,2.79-14.3,6.1h0l-.02,14.76c0,3.18,5.99,5.94,13.35,6.15,.38,0,25.85,.01,29.75,.01l.1-14.37h-14.07Zm-16.71-5.67c-3.5,0-5.94-1.26-5.94-2.4s2.44-2.4,5.94-2.4,5.94,1.26,5.94,2.4-2.44,2.4-5.94,2.4Z" fill="#ffcd00"/><path d="M47.46,23.29c-.09-.09-.22-.15-.35-.15h-14.1v-5.49c0-4.02-6.72-7.17-15.3-7.17S2.41,13.64,2.41,17.65v14.69c-.01,2.25,2.11,4.23,5.51,5.54,.09,.1,.22,.17,.37,.17,.02,0,.03,0,.05-.01,2.33,.83,5.2,1.36,8.39,1.45,.28,0,29.05,.01,30.28,.01,.27,0,.5-.22,.5-.5l.11-15.37c0-.13-.05-.26-.15-.36Zm-15.46-.15h-4.37c1.95-.77,3.46-1.77,4.37-2.91v2.91Zm-14.3-11.65c7.75,0,14.3,2.82,14.3,6.17s-6.55,6.17-14.3,6.17-14.27-2.81-14.3-6.15v-.09h0c.09-3.31,6.6-6.1,14.3-6.1Zm28.79,27.02c-.61,0-1.77,0-3.27,0v-7.38c0-.28-.22-.5-.5-.5s-.5,.22-.5,.5v7.38c-.86,0-1.81,0-2.82,0v-5.39c0-.28-.22-.5-.5-.5s-.5,.22-.5,.5v5.39c-.94,0-1.91,0-2.91,0v-7.33c0-.28-.22-.5-.5-.5s-.5,.22-.5,.5v7.33c-.93,0-1.88,0-2.82,0v-5.33c0-.28-.22-.5-.5-.5s-.5,.22-.5,.5v5.33c-.97,0-1.94,0-2.88,0v-7.44c0-.28-.22-.5-.5-.5s-.5,.22-.5,.5v7.43c-.98,0-1.93,0-2.82,0v-5.44c0-.28-.22-.5-.5-.5s-.5,.22-.5,.5v5.44c-1.06,0-2.04,0-2.88,0v-7.32c0-.28-.22-.5-.5-.5s-.5,.22-.5,.5v7.32c-1.4,0-2.27,0-2.34,0-.16,0-.32-.02-.48-.02v-5.3c0-.28-.22-.5-.5-.5s-.5,.22-.5,.5v5.24c-.92-.07-1.81-.18-2.66-.33v-7.02c0-.28-.22-.5-.5-.5s-.5,.22-.5,.5v6.83c-1.01-.21-1.96-.48-2.82-.78v-4.05c0-.28-.22-.5-.5-.5s-.5,.22-.5,.5v3.67c-2.69-1.13-4.39-2.7-4.39-4.39v-12.12c2.18,2.71,7.68,4.59,14.31,4.59,2.36,0,4.58-.25,6.56-.68h22.34l-.1,14.37Z"/><path d="M17.57,21.22c3.95,0,6.94-1.46,6.94-3.4s-2.98-3.4-6.94-3.4-6.94,1.46-6.94,3.4,2.98,3.4,6.94,3.4Zm0-5.8c3.5,0,5.94,1.26,5.94,2.4s-2.44,2.4-5.94,2.4-5.94-1.26-5.94-2.4,2.44-2.4,5.94-2.4Z"/></g></g><g id="uuid-fc4c43f8-46ee-4f05-ad8e-465f17620e84"><text transform="translate(.58 55.09)" font-family="Roboto-Regular, Roboto" font-size="6"><tspan x="0" y="0">tape-measu</tspan><tspan x="31.53" y="0" letter-spacing="0em">r</tspan><tspan x="33.5" y="0">e</tspan></text></g></svg>

<svg xmlns="http://www.w3.org/2000/svg" viewBox="0 0 50 50"><g id="b1032657-f595-48a9-bda9-f4316d732885" data-name="ICONS"><path d="M34.28,25.89a.52.52,0,0,1-.53-.5v-6c0-3.34-6.55-6.16-14.3-6.16S5.24,16,5.16,19.34h0l0,14.76c0,3.18,6,5.94,13.36,6.15H48.25l.1-14.37ZM17.57,20.22c-3.5,0-5.94-1.26-5.94-2.4s2.44-2.4,5.94-2.4,5.93,1.27,5.93,2.4S21.07,20.22,17.57,20.22Z" fill="#fdd600"/><path d="M47.46,23.29a.51.51,0,0,0-.35-.15H33V17.65c0-4-6.72-7.16-15.3-7.16S2.41,13.64,2.41,17.65v0l0,14.67c0,2.25,2.13,4.23,5.52,5.54a.53.53,0,0,0,.37.17l.05,0a27.33,27.33,0,0,0,8.39,1.46H47a.51.51,0,0,0,.5-.5l.11-15.36A.49.49,0,0,0,47.46,23.29ZM32,23.14H27.63A10.37,10.37,0,0,0,32,20.23ZM17.7,11.49c7.76,0,14.3,2.82,14.3,6.16s-6.54,6.17-14.3,6.17S3.43,21,3.41,17.67v-.08h0C3.49,14.28,10,11.49,17.7,11.49Zm28.8,27H43.23V31.13a.5.5,0,0,0-1,0v7.38H39.4V33.12a.5.5,0,0,0-.5-.5.5.5,0,0,0-.5.5v5.39H35.5V31.18a.5.5,0,0,0-.5-.5.5.5,0,0,0-.5.5v7.33H31.67V33.18a.5.5,0,0,0-.5-.5.5.5,0,0,0-.5.5v5.33H27.79V31.07a.5.5,0,0,0-.5-.5.5.5,0,0,0-.5.5V38.5H24V33.07a.5.5,0,0,0-1,0V38.5H20.09V31.18a.5.5,0,0,0-1,0V38.5H16.75l-.48,0V33.18a.5.5,0,0,0-.5-.5.5.5,0,0,0-.5.5v5.24c-.92-.07-1.81-.18-2.66-.33v-7a.5.5,0,0,0-.5-.5.5.5,0,0,0-.5.5V37.9a22.69,22.69,0,0,1-2.83-.78v-4a.5.5,0,0,0-.5-.5.5.5,0,0,0-.5.5v3.66C5.09,35.6,3.39,34,3.39,32.35l0-12.12c2.16,2.71,7.67,4.59,14.29,4.59a31,31,0,0,0,6.56-.68H46.6Z" fill="#231f20"/><path d="M17.57,21.22c3.95,0,6.93-1.46,6.93-3.4s-3-3.4-6.93-3.4-6.94,1.47-6.94,3.4S13.61,21.22,17.57,21.22Zm0-5.8c3.5,0,5.93,1.27,5.93,2.4s-2.43,2.4-5.93,2.4-5.94-1.26-5.94-2.4S14.07,15.42,17.57,15.42Z" fill="#231f20"/></g><g id="e3cc2a02-f8a6-4e7e-9ea5-9b03c96f71c9" data-name="LABELS"><text transform="translate(0.58 55.09)" font-size="6" fill="#231f20" font-family="Roboto-Regular, Roboto">tape-measu<tspan x="31.53" y="0" letter-spacing="-0.01em">r</tspan><tspan x="33.5" y="0">e</tspan></text></g></svg>
